X: 1
T: Timmy Clifford's Jig
R: jig
S: Fiddle Hell Online 2022-3-26 handout for Fiddle Hell jam session
B: the Portland Collection 2 p.206
Z: 2022 John Chambers <jc:trillian.mit.edu>
M: 6/8
L: 1/8
K: G
|:\
"G"G,B,D E2D | DB,D G3 | G,B,D "Am"C2B | "D"AGF "G"GDB, ||\
"G"G,B,D E2D | DB,D GBc | d3 B3 | AGF [1 "G"GDB, :|[2 "G"G ||
|: Bd |\
"C"e3 "D"d3 | "G"BAG GBd | "C"ege "G"d2B | "Am"BAG "D"Agf ||\
"C"e3 "D"d3 | "G"BAG GAB | "Am"cec "G"BdB | AGF [1 G :|[2 "G"G3 |]
